X: 1
T: City Of Savannah
M: 4/4
L: 1/8
R: hornpipe
K: Dmaj
FG|(3ABA FA df af | ga ba gf ed |
cd ed (3cec Bc | AB GA (3FAF G^G |
(3ABA GA df af | ga ba gf ed |
cb ag (3fef Bc | (3dcd fe d2 :|
|:cd|(3efe ce ae c'e | be ^ge ae be |
(3efe ce ae c'e | be ^ge a2 f=g |
(3aba ga ea ca | (3aba fa da Aa |
(3gag Bg (3fgf Af | eA Bc d2:|
